source/images/icons/behance.svg

<?xml version="1.0" encoding="UTF-8" standalone="no"?>
<svg width="30px" height="30px" viewBox="0 0 30 30" version="1.1" xmlns="http://www.w3.org/2000/svg" xmlns:xlink="http://www.w3.org/1999/xlink">
    <!-- Generator: Sketch 39.1 (31720) - http://www.bohemiancoding.com/sketch -->
    <title>behance</title>
    <desc>Created with Sketch.</desc>
    <defs></defs>
    <g id="Speakers" stroke="none" stroke-width="1" fill="none" fill-rule="evenodd">
        <path d="M11.05,13.54375 L8.59375,13.54375 L8.59375,11.22 L10.8225,11.22 C13.17,11.22 12.88,13.54375 11.05,13.54375 L11.05,13.54375 Z M18.28625,14.86625 L21.56625,14.86625 C21.4225,12.7575 18.61625,12.60375 18.28625,14.86625 L18.28625,14.86625 Z M10.91125,15.36125 L8.59375,15.36125 L8.59375,17.795 L10.87375,17.795 C13.10125,17.79375 12.965,15.36125 10.91125,15.36125 L10.91125,15.36125 Z M30,15 C30,23.28375 23.28375,30 15,30 C6.71625,30 0,23.28375 0,15 C0,6.71625 6.71625,0 15,0 C23.28375,0 30,6.71625 30,15 L30,15 Z M13.30375,14.08375 C15.38875,13.0175 15.3125,9.1075 11.32,9.04875 L6.25,9.04875 L6.25,19.96125 L10.96375,19.96125 C15.91125,19.96125 15.8275,15.0025 13.30375,14.08375 L13.30375,14.08375 Z M17.5,10.12625 L22.5,10.12625 L22.5,9.0325 L17.5,9.0325 L17.5,10.12625 L17.5,10.12625 Z M23.67875,14.7425 C22.9975,10.36125 16.1125,10.10375 16.1125,15.8325 C16.1125,21.49 22.5875,20.605 23.54875,17.7825 L21.23875,17.7825 C20.4325,18.7175 18.10375,18.44625 18.23375,16.3025 L23.74625,16.3025 C23.7575,15.60875 23.735,15.11125 23.67875,14.7425 L23.67875,14.7425 Z" id="behance" fill="#0D41C2"></path>
    </g>
</svg>

<svg width="30" height="30" viewBox="0 0 30 30" xmlns="http://www.w3.org/2000/svg"><title>behance</title><path d="M11.05 13.544H8.594V11.22h2.229c2.347 0 2.057 2.324.227 2.324zm7.236 1.322h3.28c-.143-2.108-2.95-2.262-3.28 0zm-7.375.495H8.594v2.434h2.28c2.227-.001 2.091-2.434.037-2.434zM30 15c0 8.284-6.716 15-15 15-8.284 0-15-6.716-15-15C0 6.716 6.716 0 15 0c8.284 0 15 6.716 15 15zm-16.696-.916c2.085-1.066 2.008-4.976-1.984-5.035H6.25V19.96h4.714c4.947 0 4.864-4.958 2.34-5.877zm4.196-3.958h5V9.033h-5v1.093zm6.179 4.617c-.681-4.382-7.566-4.64-7.566 1.09 0 5.657 6.474 4.772 7.436 1.95h-2.31c-.806.934-3.135.663-3.005-1.48h5.512c.012-.694-.011-1.192-.067-1.56z" fill="#0D41C2" fill-rule="evenodd"/></svg>
